X:9
T:Angle se promne
A:Normandie
O:France
M:6/8
Q:1/4=120
K:B
D|G3GFG|B3A3|GBAG2F|1G3G2:|2G3G3|
GBcd2e|dABc2A|B3A3|GBcd2e|
dABc2A|d6|GBAG2F|G3G2||
W:
W:Angle se promne
W:le long de son jardin
W:Le long de son jardin, sur le bord de l'le
W:Le long de son jardin, sur le bord de l'eau
W:Sur le bord du vaisseau
W:
W:Elle y fit la rencontre de trente matelots
W:
W:Le plus jeune des trente il se mit  chanter
W:
W:Votre chanson est belle, je voudrais la savoir!
W:
W:Belle montez dans ma barque et je vous l'apprendrai
W:
W:Quand elle ft dans la barque elle se mit  pleurer
W:
W:Qu'avez-vous donc la belle, qu'avez-vous  pleurer
W:
W:Je pleure mon cur volage que vous m'avez gagn
W:
W:Ne pleurez pas la belle et je vous le rendrai
W:
W:C n'se rend pas dit-elle comm' de l'argent prt.
